fs/desktop_keyboard_28_regular.svg

<svg viewBox="0 0 28 28" fill="none" xmlns="http://www.w3.org/2000/svg" height="1em" width="1em">
  <path d="M11.075 25.0005H7.72405C7.32185 24.9868 7 24.6565 7 24.2509C7 23.8712 7.28215 23.5574 7.64823 23.5078L7.75 23.5009L8.24459 23.5008L8.25 23.5004L9.5 23.5005V21.0025L4.25 21.0023C3.00736 21.0023 2 19.9949 2 18.7523V5.25C2 4.00736 3.00736 3 4.25 3H23.7488C24.9915 3 25.9988 4.00736 25.9988 5.25V14.4324C25.5458 14.1931 25.0379 14.0439 24.4988 14.0086V5.25C24.4988 4.83579 24.163 4.5 23.7488 4.5H4.25C3.83579 4.5 3.5 4.83579 3.5 5.25V18.7523C3.5 19.1665 3.83579 19.5023 4.25 19.5023L11 19.5013V24.2505C11 24.5073 11.0258 24.7582 11.075 25.0005ZM14.75 15.0005C13.2312 15.0005 12 16.2317 12 17.7505V24.2505C12 25.7693 13.2312 27.0005 14.75 27.0005H24.25C25.7688 27.0005 27 25.7693 27 24.2505V17.7505C27 16.2317 25.7688 15.0005 24.25 15.0005H14.75ZM15.5 24.2505C15.5 23.8363 15.8358 23.5005 16.25 23.5005H22.75C23.1642 23.5005 23.5 23.8363 23.5 24.2505C23.5 24.6647 23.1642 25.0005 22.75 25.0005H16.25C15.8358 25.0005 15.5 24.6647 15.5 24.2505ZM15.5 19.0005C14.9477 19.0005 14.5 18.5528 14.5 18.0005C14.5 17.4482 14.9477 17.0005 15.5 17.0005C16.0523 17.0005 16.5 17.4482 16.5 18.0005C16.5 18.5528 16.0523 19.0005 15.5 19.0005ZM18.5 21.0005C18.5 21.5528 18.0523 22.0005 17.5 22.0005C16.9477 22.0005 16.5 21.5528 16.5 21.0005C16.5 20.4482 16.9477 20.0005 17.5 20.0005C18.0523 20.0005 18.5 20.4482 18.5 21.0005ZM19.5 19.0005C18.9477 19.0005 18.5 18.5528 18.5 18.0005C18.5 17.4482 18.9477 17.0005 19.5 17.0005C20.0523 17.0005 20.5 17.4482 20.5 18.0005C20.5 18.5528 20.0523 19.0005 19.5 19.0005ZM22.5 21.0005C22.5 21.5528 22.0523 22.0005 21.5 22.0005C20.9477 22.0005 20.5 21.5528 20.5 21.0005C20.5 20.4482 20.9477 20.0005 21.5 20.0005C22.0523 20.0005 22.5 20.4482 22.5 21.0005ZM23.5 19.0005C22.9477 19.0005 22.5 18.5528 22.5 18.0005C22.5 17.4482 22.9477 17.0005 23.5 17.0005C24.0523 17.0005 24.5 17.4482 24.5 18.0005C24.5 18.5528 24.0523 19.0005 23.5 19.0005Z" fill="#212121"/>
</svg>

<svg viewBox="0 0 28 28" fill="none" xmlns="http://www.w3.org/2000/svg" height="1em" width="1em">
  <path d="M11.075 25h-3.35a.75.75 0 0 1-.077-1.492l.102-.007H9.5v-2.498H4.25A2.25 2.25 0 0 1 2 18.752V5.25A2.25 2.25 0 0 1 4.25 3h19.499a2.25 2.25 0 0 1 2.25 2.25v9.182a3.726 3.726 0 0 0-1.5-.423V5.25a.75.75 0 0 0-.75-.75H4.25a.75.75 0 0 0-.75.75v13.502c0 .415.336.75.75.75H11v4.748c0 .257.026.508.075.75Zm3.675-10A2.75 2.75 0 0 0 12 17.75v6.5A2.75 2.75 0 0 0 14.75 27h9.5A2.75 2.75 0 0 0 27 24.25v-6.5A2.75 2.75 0 0 0 24.25 15h-9.5Zm.75 9.25a.75.75 0 0 1 .75-.75h6.5a.75.75 0 0 1 0 1.5h-6.5a.75.75 0 0 1-.75-.75Zm0-5.25a1 1 0 1 1 0-2 1 1 0 0 1 0 2Zm3 2a1 1 0 1 1-2 0 1 1 0 0 1 2 0Zm1-2a1 1 0 1 1 0-2 1 1 0 0 1 0 2Zm3 2a1 1 0 1 1-2 0 1 1 0 0 1 2 0Zm1-2a1 1 0 1 1 0-2 1 1 0 0 1 0 2Z" fill="#212121"/>
</svg>
